!!!OTL@@DE: Das M&uuml;hlrad
!!!ONB: Volksweise (1803)
!!!ONB: Volkslied (1784)
!!!OMD: M&auml;ssig langsam
!!!OCL: Erk, Ludwig
!!!GCO: Deutscher Liederschatz, Band 2
**kern	**kern	**kern
*staff3	*staff2	*staff1
*Ipiano	*Ipiano	*Ivox
*>[A,B,B]	*>[A,B,B]	*>[A,B,B]
*>A	*>A	*>A
*clefF4	*clefG2	*clefG2
*k[f#]	*k[f#]	*k[f#]
*G:	*G:	*G:
*M6/8	*M6/8	*M6/8
*MM64	*MM64	*MM64
8r	8d/	8d/
=1	=1	=1
*^	*^	*
[4.D/	4GG\	4g/	8B\L	8.g/
.	.	.	8d\	.
.	.	.	.	16g/
.	8GG\	8g/	8B\J	8g/
4D/]	8BB\L	8g/L	8d\L	8g/L
.	8AA\	8f#/	8c\	8f#/J
8D/	8GG\J	8g/J	8B\J	8g/
*v	*v	*	*	*
=2	=2	=2	=2
4C/	8G\L	(4f#/	(4f#/
.	8c\	.	.
8C/	8e\J)	8e/	8e/)
(8AA/L	4.ryy	4F#/ 4d/	4d/
8D/	.	.	.
8C/J)	.	8F#/ 8A/ 8d/	8d/
=3	=3	=3	=3
4BB/	4g/	8G\L	8.g/L
.	.	8d\	.
.	.	.	16g/Jk
8GG/	8g/	8B\J	8g/
4D\	8.a/L	8c\L	8.a/L
.	.	8d\	.
.	16g/k	.	16g/Jk
8D\	8a/J	8f#\J	8a/
*	*v	*v	*
=4	=4	=4
8GG/L	4g/ 4b/	4.b\
8G/J	.	.
8r	8B/	.
4r	8d/L	4r
.	8g/J	.
=!|:	=!|:	=!|:
*>B	*>B	*>B
8r	(16b\LL	16b\LL
.	16cc\JJ)	16cc\JJ
=5	=5	=5
*^	*^	*
4G/	4BB\	4dd/	8d\L	8.dd\
.	.	.	8g\	.
.	.	.	.	16dd\
8G/	8BB\	8dd/	8d\J	8dd\
*	*	*v	*v	*
4.G/	(8BB\L	8d/ 8dd/L	8dd\L
.	8C\	8e/ 8ee/	8ee\J
.	8BB\J)	8d/ 8dd/J	8dd\
*v	*v	*	*
=6	=6	=6
4.AA\ 4.G\	8d/ 8dd/L	(4dd\
.	8e/	.
.	8c/ 8cc/J	8cc\)
4D\ 4F#\	8c/ 8cc/L	4cc\
.	8d/	.
8D\ 8F#\	8c/ 8cc/J	8cc\
=7	=7	=7
4GG/ 4G/	8B/ 8b/L	8.b\
.	8d/	.
.	.	16cc\
8BB/	8g/ 8b/J	8b\
4D\	8c/ 8f#/ 8a/L	8a/
.	8B/ 8g/	8g/
8DD/ 8D/	8c/ 8f#/ 8a/J	8a/
=8	=8	=8
8GG/L	4.B/ 4.g/	4.g/
8BB/	.	.
8D/J	.	.
4GG/	4r	4r
==:|!	==:|!	==:|!
*-	*-	*-
!!!ENC: Craig Stuart Sapp
!!!END: 2004/05/19/
!!!EFL: 219/600
